storage/app/icons/phosphoricons/duotone/funnel-simple-duotone.svg

<svg xmlns="http://www.w3.org/2000/svg" fill="currentColor" viewBox="0 0 256 256"><path d="M232 56v144a16 16 0 0 1-16 16H40a16 16 0 0 1-16-16V56a16 16 0 0 1 16-16h176a16 16 0 0 1 16 16" opacity=".2"/><path d="M200 136a8 8 0 0 1-8 8H64a8 8 0 0 1 0-16h128a8 8 0 0 1 8 8m32-56H24a8 8 0 0 0 0 16h208a8 8 0 0 0 0-16m-80 96h-48a8 8 0 0 0 0 16h48a8 8 0 0 0 0-16"/></svg>

<svg xmlns="http://www.w3.org/2000/svg" viewBox="0 0 256 256" fill="currentColor"><path d="M232,56V200a16,16,0,0,1-16,16H40a16,16,0,0,1-16-16V56A16,16,0,0,1,40,40H216A16,16,0,0,1,232,56Z" opacity="0.2"/><path d="M200,136a8,8,0,0,1-8,8H64a8,8,0,0,1,0-16H192A8,8,0,0,1,200,136Zm32-56H24a8,8,0,0,0,0,16H232a8,8,0,0,0,0-16Zm-80,96H104a8,8,0,0,0,0,16h48a8,8,0,0,0,0-16Z"/></svg>
